settings/img/clients/ie.svg

<?xml version="1.0" ?><svg enable-background="new 0 0 32 32" version="1.1" viewBox="0 0 32 32" xml:space="preserve" xmlns="http://www.w3.org/2000/svg" xmlns:xlink="http://www.w3.org/1999/xlink"><g id="Flat_copy"><g><path d="M11.456,18.421v0.064c0,1.051,0.24,2.061,0.725,3.023c0.569,1.008,1.35,1.807,2.337,2.398    c0.987,0.59,2.085,0.886,3.292,0.886c1.207,0,2.306-0.296,3.294-0.886c0.986-0.592,1.766-1.391,2.336-2.398h7.837    c-1.011,2.848-2.766,5.181-5.267,6.997c-2.503,1.818-5.313,2.727-8.429,2.727c-2.326,0-4.521-0.503-6.584-1.512    c-4.609,2.235-7.924,2.344-9.943,0.329C0.35,29.395,0,28.299,0,26.765c0-1.533,0.296-3.242,0.889-5.125    c0.592-1.883,1.58-3.954,2.963-6.21c1.382-2.256,3.017-4.304,4.904-6.144c1.098-1.14,1.8-1.841,2.106-2.103    c-2.722,1.313-5.18,3.352-7.373,6.11c0.789-3.197,2.491-5.826,5.102-7.886c2.611-2.059,5.608-3.088,8.988-3.088    c0.351,0,0.701,0.022,1.052,0.065c2.459-1.096,4.697-1.708,6.717-1.84c2.019-0.132,3.445,0.197,4.279,0.985    c1.668,1.709,1.822,4.381,0.461,8.017c1.273,2.238,1.91,4.648,1.91,7.232c0,0.613-0.022,1.161-0.065,1.644h-7.771L11.456,18.421    L11.456,18.421z M10.075,29.199c-2.94-1.796-5.005-4.314-6.191-7.558c-1.975,3.856-2.238,6.506-0.79,7.952    C4.367,30.863,6.693,30.731,10.075,29.199z M23.638,14.611c-0.088-1.578-0.724-2.924-1.909-4.042    c-1.186-1.117-2.579-1.676-4.181-1.676c-1.604,0-2.996,0.559-4.181,1.676c-1.187,1.118-1.823,2.464-1.911,4.042H23.638z     M22.914,3.373c2.808,1.139,5.047,2.978,6.715,5.52c1.01-2.716,0.965-4.621-0.131-5.718C28.312,1.95,26.117,2.016,22.914,3.373z"/></g></g></svg>

<?xml version="1.0" ?><svg xmlns="http://www.w3.org/2000/svg" xmlns:xlink="http://www.w3.org/1999/xlink" xml:space="preserve" viewBox="0 0 16 16" enable-background="new 0 0 32 32"><defs id="defs11" /><g transform="matrix(0.50003125,0,0,0.5166818,0,-0.26642545)" id="Flat_copy"><g id="g4"><path id="path2" d="m 11.456,18.421 v 0.064 c 0,1.051 0.24,2.061 0.725,3.023 0.569,1.008 1.35,1.807 2.337,2.398 0.987,0.59 2.085,0.886 3.292,0.886 1.207,0 2.306,-0.296 3.294,-0.886 0.986,-0.592 1.766,-1.391 2.336,-2.398 h 7.837 c -1.011,2.848 -2.766,5.181 -5.267,6.997 -2.503,1.818 -5.313,2.727 -8.429,2.727 -2.326,0 -4.521,-0.503 -6.584,-1.512 C 6.388,31.955 3.073,32.064 1.054,30.049 0.35,29.395 0,28.299 0,26.765 0,25.232 0.296,23.523 0.889,21.64 1.481,19.757 2.469,17.686 3.852,15.43 5.234,13.174 6.869,11.126 8.756,9.286 9.854,8.146 10.556,7.445 10.862,7.183 8.14,8.496 5.682,10.535 3.489,13.293 4.278,10.096 5.98,7.467 8.591,5.407 c 2.611,-2.059 5.608,-3.088 8.988,-3.088 0.351,0 0.701,0.022 1.052,0.065 2.459,-1.096 4.697,-1.708 6.717,-1.84 2.019,-0.132 3.445,0.197 4.279,0.985 1.668,1.709 1.822,4.381 0.461,8.017 1.273,2.238 1.91,4.648 1.91,7.232 0,0.613 -0.022,1.161 -0.065,1.644 H 24.162 Z M 10.075,29.199 C 7.135,27.403 5.07,24.885 3.884,21.641 c -1.975,3.856 -2.238,6.506 -0.79,7.952 1.273,1.27 3.599,1.138 6.981,-0.394 z M 23.638,14.611 C 23.55,13.033 22.914,11.687 21.729,10.569 20.543,9.452 19.15,8.893 17.548,8.893 c -1.604,0 -2.996,0.559 -4.181,1.676 -1.187,1.118 -1.823,2.464 -1.911,4.042 z M 22.914,3.373 c 2.808,1.139 5.047,2.978 6.715,5.52 C 30.639,6.177 30.594,4.272 29.498,3.175 28.312,1.95 26.117,2.016 22.914,3.373 Z" /></g></g></svg>
